X:6889
T:the Hautboy
O:england
N:P 17 3/3
R:Reel
M:C|
A:Westmorland
K:A
F|EFAB c2cA|d2dB cAF2|\
EFAB c2ec|A2B/2A/2B cAA2:|
|:g|agfe fgaf|ecBA BAFg|agfe fgaf|edcBA2A2:|


